X:218
T:Ride the Wild Turkey
C:Darol Anger
N:TablEdited by Kim Davis
L:1/8
Q:1/4=250
M:4/4
K:A
z8 | e2 Bd cB AF | "G"=GA BG E2 EF | =GA Bd "D"=gf ed | "E"cd ec "A"A2 e2 | z2 Bd cB AF | 
"G"=GA BG E2 EF | =GA Bd =gb ag | "D"fg af gf ea | "A"ec AE "D"dB GE | "A"cA FD "E"BG EA | 
"(Guitar Run)"z8 | z2 EF AB cd |: "E"e6 Bd | cB Ac BA FD | =GF GB AG FG | E6 EF | 
=G2 EG B2 GB | d=g2d bg ag | "D"fg af gf ed | "A"cd ec dc BA :| "D7"f3a =fe d2 | 
=c8 | "E7"g3b gf ec | e8 | "D"F2 AF ED G2 | "E"BG FE "F"A2 =cA | (3=GAG =FD "E"ED E^F | 
GF GA Bc d^d | 
 

